X:280
T:Dancers of Don, The
R:Strathspey
M:C
%%printtempo 0
Q:140
K:G
A|\
"G"G2B>A "G/B"G<B d2| "C"e>d e>g "D"d2e>f| "G"g2 g>e "Bm"d<BB>c| "G"d>B A<G "Am"A2"D7"A2|
"G"G2B>A "G7"G<B d2| "C"e>d e<g "D"d2 "G/B"d>g|\
"C"e>g "G/B"d<g "D7/A"c>G "G"B<G| "D7"A>G A<B "G"G2||
B<c|\
"G"d2d>e "Em"d>B G2|"C"e2e<g "D"d2d2|"C"e2 e<g "G/B"d>BA>B|\
"Am" c>B A<G "D"A2"D7"A2|
"G"G2B>A "G7"G<B d2|"C"e>d e<g "G/B"d2d>g| "C"e<ge>a "G/D"B>d "G/B"g2| "Am"e>g "D7"f<a "G"g2g|]
